kora/actions/scalable/tool-tweak.svg

<svg xmlns="http://www.w3.org/2000/svg" width="16" height="16" viewBox="0 0 16 16">
 <defs>
  <style id="current-color-scheme" type="text/css">
   .ColorScheme-Text { color:#dfdfdf; } .ColorScheme-Highlight { color:#4285f4; }
  </style>
 </defs>
 <path style="fill:currentColor" class="ColorScheme-Text" d="M 9.7851562 0.98632812 C 9.6058244 0.97506172 9.4255594 0.9795875 9.2480469 1 C 7.4815469 1.369 6.6307438 3.2845656 6.0898438 4.9472656 C 5.6167938 6.4576656 5.1670375 8.3052437 3.6484375 8.9648438 C 2.9897975 9.2243437 1.7200312 9.3291031 1.0195312 9.2207031 L 1 14.941406 L 15 14.980469 L 15 9.2597656 C 13.1869 9.5457656 11.140384 9.5036438 9.6464844 8.2773438 C 8.3327844 7.1489437 7.9007294 4.8738344 8.8496094 3.3652344 C 9.7949794 2.2396344 11.759753 2.7087969 12.376953 3.9667969 C 12.887763 4.2327969 12.721979 3.4627562 12.636719 3.1601562 C 12.277391 1.8974438 11.040479 1.065193 9.7851562 0.98632812 z"/>
</svg>

<svg xmlns="http://www.w3.org/2000/svg" style="fill-rule:evenodd;clip-rule:evenodd;stroke-linejoin:round;stroke-miterlimit:2" width="100%" height="100%" version="1.1" viewBox="0 0 16 16" xml:space="preserve">
 <defs>
  <style id="current-color-scheme" type="text/css">
   .ColorScheme-Text { color:#dfdfdf; } .ColorScheme-Highlight { color:#4285f4; } .ColorScheme-NeutralText { color:#ff9800; } .ColorScheme-PositiveText { color:#4caf50; } .ColorScheme-NegativeText { color:#f44336; }
  </style>
 </defs>
 <path style="fill:currentColor;fill-opacity:0.3;" class="ColorScheme-Text" d="M9.785,0.986c-0.179,-0.011 -0.359,-0.006 -0.537,0.014c-1.766,0.369 -2.617,2.285 -3.158,3.947c-0.473,1.511 -0.923,3.358 -2.442,4.018c-0.658,0.259 -1.928,0.364 -2.628,0.256l-0.02,5.72l14,0.039l0,-5.72c-1.813,0.286 -3.86,0.244 -5.354,-0.983c-1.313,-1.128 -1.745,-3.403 -0.796,-4.912c0.945,-1.125 2.91,-0.656 3.527,0.602c0.511,0.266 0.345,-0.504 0.26,-0.807c-0.36,-1.263 -1.597,-2.095 -2.852,-2.174Z"/>
 <path style="fill:currentColor;" class="ColorScheme-Text" d="M9.785,0.986c-0.179,-0.011 -0.359,-0.006 -0.537,0.014c-1.766,0.369 -2.617,2.285 -3.158,3.947c-0.473,1.511 -0.923,3.358 -2.442,4.018c-0.658,0.259 -1.928,0.364 -2.628,0.256l-0.02,5.72l14,0.039l0,-5.72c-1.813,0.286 -3.86,0.244 -5.354,-0.983c-1.313,-1.128 -1.745,-3.403 -0.796,-4.912c0.945,-1.125 2.91,-0.656 3.527,0.602c0.511,0.266 0.345,-0.504 0.26,-0.807c-0.36,-1.263 -1.597,-2.095 -2.852,-2.174Zm-2.291,3.059c-0.177,0.398 -0.323,0.81 -0.45,1.201c-0.251,0.802 -0.502,1.692 -0.886,2.471c-0.468,0.949 -1.128,1.738 -2.111,2.165c-0.011,0.005 -0.021,0.009 -0.032,0.013c-0.495,0.195 -1.277,0.32 -1.999,0.354l-0.013,3.695l11.997,0.034l0,-3.601c-1.759,0.114 -3.585,-0.175 -5.005,-1.341c-1.334,-1.146 -1.938,-3.229 -1.501,-4.991Z"/>
</svg>
